svg/u1f61c.svg

<svg viewBox="0 0 128 128" xmlns="http://www.w3.org/2000/svg" xmlns:xlink="http://www.w3.org/1999/xlink">
  <g>
    <g id="gold">
      <radialGradient id="face_1_" cx="63.6" cy="808.9" gradientTransform="matrix(1 0 0 1 0 -746)" gradientUnits="userSpaceOnUse" r="56.9597">
        <stop offset="0.5" stop-color="#FDE030"/>
        <stop offset="0.92" stop-color="#F7C02B"/>
        <stop offset="1" stop-color="#F4A223"/>
      </radialGradient>
      <path id="face" d="M63.6,118.8c-27.9,0-58-17.5-58-55.9S35.7,7,63.6,7c15.5,0,29.8,5.1,40.4,14.4 c11.5,10.2,17.6,24.6,17.6,41.5s-6.1,31.2-17.6,41.4C93.4,113.6,79,118.8,63.6,118.8z" fill="url(#face_1_)"/>
      <path d="M111.49,29.67c5.33,8.6,8.11,18.84,8.11,30.23c0,16.9-6.1,31.2-17.6,41.4 c-10.6,9.3-25,14.5-40.4,14.5c-18.06,0-37-7.35-48.18-22.94c10.76,17.66,31,25.94,50.18,25.94c15.4,0,29.8-5.2,40.4-14.5 c11.5-10.2,17.6-24.5,17.6-41.4C121.6,50.16,118.13,38.84,111.49,29.67z" fill="#EB8F00"/>
    </g>
    <g id="facial_expressions">
      <g id="winking-face-with-tongue">
        <g id="eyes">
          <circle cx="82.56" cy="53.75" fill="#FFFFFF" r="17.44"/>
          <ellipse cx="83.31" cy="53.75" fill="#422B0D" rx="7.48" ry="7.6"/>
          <path d="M52.56,56.89l-0.15-0.25c-0.17-0.27-0.35-0.54-0.54-0.79c-0.66-0.87-1.38-1.69-2.16-2.45 c-1.06-1.02-2.19-1.98-3.37-2.86c-0.65-0.46-1.32-1-2-1.4s-1.4-0.88-2.18-1.33s-1.47-0.8-2.22-1.17s-1.51-0.7-2.24-1 c-1.36-0.57-2.76-1.05-4.19-1.43c-1.05-0.28-2.12-0.48-3.2-0.59c-0.33-0.04-0.67-0.06-1-0.06H29c-1.36-0.02-2.48,1.06-2.5,2.42 c-0.02,1.07,0.66,2.03,1.67,2.37l0.26,0.09l0.87,0.28c0.57,0.19,1.39,0.5,2.41,0.92c1.02,0.42,2.19,1,3.45,1.6l1.93,1 c0.66,0.34,1.28,0.69,2,1.11l0.41,0.23c-0.45,0-0.9,0.08-1.35,0.14s-0.76,0.12-1.26,0.22s-0.91,0.19-1.32,0.29 c-0.83,0.21-1.65,0.47-2.45,0.77c-1.45,0.54-2.83,1.25-4.12,2.11c-0.53,0.36-1.03,0.75-1.5,1.18c-0.38,0.33-0.73,0.68-1.06,1.06 c-0.23,0.25-0.44,0.51-0.63,0.78l-0.21,0.28c-0.76,1.12-0.47,2.65,0.65,3.42c0.83,0.56,1.92,0.57,2.75,0.01l0.27-0.21l0.17-0.13 l0.5-0.35c0.64-0.43,1.31-0.81,2-1.14c1.02-0.49,2.08-0.89,3.16-1.21c0.61-0.19,1.25-0.34,1.9-0.49 c0.33-0.08,0.65-0.14,0.95-0.19S38.74,60,39,60c1.33-0.18,2.66-0.27,4-0.26c1.13,0.02,2.26,0.12,3.38,0.3 c0.47,0.09,0.91,0.18,1.27,0.28s0.71,0.2,0.92,0.26l0.29,0.09l0.31,0.13l0.26,0.12c1.02,0.44,2.22,0.15,2.92-0.72 c0.33-0.41,0.52-0.91,0.54-1.43C53.04,58.12,52.92,57.45,52.56,56.89z" fill="#422B0D"/>
        </g>
      </g>
      <g id="mouth">
        <g>
          <defs>
            <path id="SVGID_1_" d="M62.82,80.43c-11.5,0.06-22.98-0.9-34.31-2.89c-1.9-0.36-3.74,0.89-4.1,2.79c-0.08,0.44-0.08,0.9,0,1.34 c3.26,16,19,29.13,38.4,29.13c21.21,0,35.48-13.57,38.45-29.19c0.34-1.91-0.92-3.73-2.83-4.08c-0.42-0.08-0.86-0.07-1.28,0.01 C85.82,79.53,74.33,80.49,62.82,80.43z"/>
          </defs>
          <clipPath id="SVGID_2_">
            <use overflow="visible" xlink:href="#SVGID_1_"/>
          </clipPath>
          <g clip-path="url(#SVGID_2_)">
            <path d="M62.82,80.43c-11.5,0.06-22.98-0.9-34.31-2.89c-1.9-0.36-3.74,0.89-4.1,2.79 c-0.08,0.44-0.08,0.9,0,1.34c3.26,16,19,29.13,38.4,29.13c21.21,0,35.48-13.57,38.45-29.19c0.34-1.91-0.92-3.73-2.83-4.08 c-0.42-0.08-0.86-0.07-1.28,0.01C85.82,79.53,74.33,80.49,62.82,80.43z" fill="#422B0D"/>
          </g>
        </g>
        <path d="M65.54,85h-2.73h-1.26c-5.73,0-11.38-0.27-16.81-0.72v24.57c0.01,9.47,7.7,17.15,17.17,17.15h3.27 c9.48,0,17.17-7.69,17.17-17.17V84.15C76.93,84.64,71.29,84.93,65.54,85z" fill="#FF4081"/>
        <path d="M63.55,106.25c1.1,0,2-0.9,2-2c0,0,0,0,0,0V85h-2.73h-1.27 v19.24c-0.01,1.1,0.89,2,1.99,2.01C63.54,106.25,63.55,106.25,63.55,106.25z" enable-background="new " fill="#AB3F2E" opacity="0.3"/>
      </g>
      <path d="M65.54,85h-4c-5.73,0-11.38-0.27-16.81-0.72v3.55 c4.74,1.07,18.8,3.48,37.61-0.22v-3.46C76.93,84.64,71.29,84.93,65.54,85z" enable-background="new " fill="#AB3F2E" opacity="0.3"/>
    </g>
  </g>
</svg>

<svg viewBox="0 0 128 128" xmlns="http://www.w3.org/2000/svg">
  <defs>
    <radialGradient id="face_1_" cx="63.6" cy="62.9" gradientUnits="userSpaceOnUse" r="56.9597">
      <stop offset="0.5" stop-color="#FDE030"/>
      <stop offset="0.92" stop-color="#F7C02B"/>
      <stop offset="1" stop-color="#F4A223"/>
    </radialGradient>
  </defs>
  <path id="face" d="M63.6,118.8 C35.7,118.8 5.6,101.3 5.6,62.9 C5.6,24.5 35.7,7 63.6,7 C79.1,7 93.4,12.1 104,21.4 C115.5,31.6 121.6,46 121.6,62.9 C121.6,79.8 115.5,94.1 104,104.3 C93.4,113.6 79,118.8 63.6,118.8 Z" fill="url(#face_1_)"/>
  <path d="M111.49,29.67 C116.82,38.27 119.6,48.51 119.6,59.9 C119.6,76.8 113.5,91.1 102,101.3 C91.4,110.6 77,115.8 61.6,115.8 C43.54,115.8 24.6,108.45 13.42,92.86 C24.18,110.52 44.42,118.8 63.6,118.8 C79,118.8 93.4,113.6 104,104.3 C115.5,94.1 121.6,79.8 121.6,62.9 C121.6,50.16 118.13,38.84 111.49,29.67 Z" fill="#EB8F00"/>
  <path d="M100,53.75 A17.44 17.44 0 1 1 65.12,53.75 A17.44 17.44 0 1 1 100,53.75 Z" fill="#FFFFFF"/>
  <path d="M90.79,53.75 A7.48 7.6 0 1 1 75.83,53.75 A7.48 7.6 0 1 1 90.79,53.75 Z" fill="#422B0D"/>
  <path d="M52.56,56.89 L52.41,56.64 C52.24,56.37 52.06,56.1 51.87,55.85 C51.21,54.98 50.49,54.16 49.71,53.4 C48.65,52.38 47.52,51.42 46.34,50.54 C45.69,50.08 45.02,49.54 44.34,49.14 C43.66,48.74 42.94,48.26 42.16,47.81 C41.38,47.36 40.69,47.01 39.94,46.64 C39.19,46.27 38.43,45.94 37.7,45.64 C36.34,45.07 34.94,44.59 33.51,44.21 C32.46,43.93 31.39,43.73 30.31,43.62 C29.98,43.58 29.64,43.56 29.31,43.56 L29,43.56 C27.64,43.54 26.52,44.62 26.5,45.98 C26.48,47.05 27.16,48.01 28.17,48.35 L28.43,48.44 L29.3,48.72 C29.87,48.91 30.69,49.22 31.71,49.64 C32.73,50.06 33.9,50.64 35.16,51.24 L37.09,52.24 C37.75,52.58 38.37,52.93 39.09,53.35 L39.5,53.58 C39.05,53.58 38.6,53.66 38.15,53.72 C37.7,53.78 37.39,53.84 36.89,53.94 C36.39,54.04 35.98,54.13 35.57,54.23 C34.74,54.44 33.92,54.7 33.12,55 C31.67,55.54 30.29,56.25 29,57.11 C28.47,57.47 27.97,57.86 27.5,58.29 C27.12,58.62 26.77,58.97 26.44,59.35 C26.21,59.6 26,59.86 25.81,60.13 L25.6,60.41 C24.84,61.53 25.13,63.06 26.25,63.83 C27.08,64.39 28.17,64.4 29,63.84 L29.27,63.63 L29.44,63.5 L29.94,63.15 C30.58,62.72 31.25,62.34 31.94,62.01 C32.96,61.52 34.02,61.12 35.1,60.8 C35.71,60.61 36.35,60.46 37,60.31 C37.33,60.23 37.65,60.17 37.95,60.12 C38.25,60.07 38.74,60 39,60 C40.33,59.82 41.66,59.73 43,59.74 C44.13,59.76 45.26,59.86 46.38,60.04 C46.85,60.13 47.29,60.22 47.65,60.32 C48.01,60.42 48.36,60.52 48.57,60.58 L48.86,60.67 L49.17,60.8 L49.43,60.92 C50.45,61.36 51.65,61.07 52.35,60.2 C52.68,59.79 52.87,59.29 52.89,58.77 C53.04,58.12 52.92,57.45 52.56,56.89 Z" fill="#422B0D"/>
  <path d="M62.82,80.43 C74.33,80.49 85.82,79.53 97.15,77.54 C97.57,77.46 98.01,77.45 98.43,77.53 C100.34,77.88 101.6,79.7 101.26,81.61 C98.29,97.23 84.02,110.8 62.81,110.8 C43.41,110.8 27.67,97.67 24.41,81.67 C24.33,81.23 24.33,80.77 24.41,80.33 C24.77,78.43 26.61,77.18 28.51,77.54 C39.84,79.53 51.32,80.49 62.82,80.43 Z" fill="#422B0D"/>
  <path d="M65.54,85 L62.81,85 L61.55,85 C55.82,85 50.17,84.73 44.74,84.28 L44.74,108.85 C44.75,118.32 52.44,126 61.91,126 L65.18,126 C74.66,126 82.35,118.31 82.35,108.83 L82.35,84.15 C76.93,84.64 71.29,84.93 65.54,85 Z" fill="#FF4081"/>
  <path d="M63.55,106.25 C64.65,106.25 65.55,105.35 65.55,104.25 C65.55,104.25 65.55,104.25 65.55,104.25 L65.55,85 L62.82,85 L61.55,85 L61.55,104.24 C61.54,105.34 62.44,106.24 63.54,106.25 C63.54,106.25 63.55,106.25 63.55,106.25 Z" fill="#AB3F2E" opacity="0.3"/>
  <path d="M65.54,85 L61.54,85 C55.81,85 50.16,84.73 44.73,84.28 L44.73,87.83 C49.47,88.9 63.53,91.31 82.34,87.61 L82.34,84.15 C76.93,84.64 71.29,84.93 65.54,85 Z" fill="#AB3F2E" opacity="0.3"/>
</svg>
